src/render/svg/php-icon.svg

<svg t="1724489977062" class="icon" viewBox="0 0 1024 1024" version="1.1" xmlns="http://www.w3.org/2000/svg"  width="256" height="256"><path d="M924.129259 0.299912h-823.758664c-54.983891 0-99.970712 44.98682-99.970712 99.970712v823.758664c0 54.983891 44.98682 99.970712 99.970712 99.970712h823.758664c54.983891 0 99.970712-44.98682 99.970712-99.970712v-823.758664c0-54.983891-44.98682-99.970712-99.970712-99.970712z m54.983891 923.729376c0 14.595724-5.798301 28.391682-16.195255 38.788636s-24.192912 16.195255-38.788636 16.195256h-823.758664c-14.595724 0-28.391682-5.798301-38.788637-16.195256-10.396954-10.396954-16.195255-24.192912-16.195255-38.788636v-608.821634h933.726447v608.821634z m-933.726447-653.808454v-169.95021c0-14.595724 5.798301-28.391682 16.195255-38.788636C71.978912 50.985063 85.774871 45.286732 100.370595 45.286732h823.758664c14.595724 0 28.391682 5.798301 38.788636 16.195256 10.396954 10.396954 16.195255 24.192912 16.195255 38.788636v169.95021h-933.726447z"  ></path><path d="M157.853754 135.260373c-12.396368 0-22.49341 10.097042-22.49341 22.49341s10.097042 22.49341 22.49341 22.49341 22.49341-10.097042 22.49341-22.49341-10.097042-22.49341-22.49341-22.49341zM292.814215 135.260373c-12.396368 0-22.49341 10.097042-22.493411 22.49341s10.097042 22.49341 22.493411 22.49341 22.49341-10.097042 22.49341-22.49341-10.097042-22.49341-22.49341-22.49341zM427.774675 135.260373c-12.396368 0-22.49341 10.097042-22.49341 22.49341s10.097042 22.49341 22.49341 22.49341 22.49341-10.097042 22.493411-22.49341-10.097042-22.49341-22.493411-22.49341z"  ></path><path d="M192.343649 536.64278h81.37616c54.883921 0 97.071561 16.995021 97.071561 69.179733 0 50.385239-42.487552 73.07859-95.771942 73.07859H241.929122v78.477009h-49.585473V536.64278z m79.376745 107.368545c34.189983 0 50.58518-12.796251 50.585181-38.188812 0-25.692473-18.094699-34.289954-52.184712-34.289954H241.929122v72.478766h29.791272zM415.578249 536.64278h49.585473v86.774578H558.836278v-86.774578h49.185591v220.735332H558.836278v-95.47203h-93.772527v95.47203h-49.585473V536.64278zM669.004003 536.64278h81.376159c54.883921 0 97.071561 16.995021 97.071561 69.179733 0 50.385239-42.487552 73.07859-95.771942 73.07859h-33.090305v78.477009h-49.585473V536.64278z m79.376745 107.368545c34.189983 0 50.58518-12.796251 50.58518-38.188812 0-25.692473-18.094699-34.289954-52.184712-34.289954h-28.09177v72.478766h29.691302z"  ></path></svg>

<svg xmlns="http://www.w3.org/2000/svg" width="256" height="256" class="icon" viewBox="0 0 1024 1024">
    <path d="M924.12926.29991H100.3706C45.3867.29991.39988 45.28673.39988 100.27062V924.0293C.39988 979.01318 45.3867 1024 100.3706 1024h823.75866c54.98389 0 99.97071-44.98682 99.97071-99.97071V100.27062c0-54.98389-44.98682-99.9707-99.97071-99.9707m54.98389 923.72938c0 14.59572-5.7983 28.39168-16.19525 38.78863s-24.19292 16.19526-38.78864 16.19526H100.3706c-14.59573 0-28.39169-5.7983-38.78864-16.19526S45.3867 938.62502 45.3867 924.0293V315.20765h933.72645zM45.3867 270.22083v-169.9502c0-14.59573 5.7983-28.39169 16.19526-38.78864 10.39695-10.49693 24.19291-16.19526 38.78863-16.19526h823.75867c14.59572 0 28.39168 5.7983 38.78863 16.19526 10.39696 10.39695 16.19526 24.19291 16.19526 38.78863v169.95021z"/>
    <path d="M157.85375 135.26037c-12.39636 0-22.4934 10.09704-22.4934 22.49341s10.09704 22.49341 22.4934 22.49341 22.49341-10.09704 22.49341-22.4934-10.09704-22.49342-22.4934-22.49342m134.96047 0c-12.39637 0-22.49341 10.09704-22.49342 22.49341s10.09705 22.49341 22.49341 22.49341 22.49341-10.09704 22.49341-22.4934-10.09704-22.49342-22.4934-22.49342m134.96046 0c-12.39637 0-22.49341 10.09704-22.49341 22.49341s10.09704 22.49341 22.4934 22.49341 22.49341-10.09704 22.49342-22.4934-10.09705-22.49342-22.49341-22.49342M192.34365 536.64278h81.37616c54.88392 0 97.07156 16.99502 97.07156 69.17973 0 50.38524-42.48755 73.0786-95.77194 73.0786h-33.0903v78.477h-49.58548zm79.37674 107.36855c34.18999 0 50.58518-12.79626 50.58518-38.18882 0-25.69247-18.0947-34.28995-52.1847-34.28995h-28.19175v72.47877zm143.85786-107.36855h49.58547v86.77458h93.67256v-86.77458h49.18559v220.73533h-49.1856v-95.47203h-93.77252v95.47203h-49.58547V536.64278zm253.42575 0h81.37616c54.88392 0 97.07156 16.99502 97.07156 69.17973 0 50.38524-42.48755 73.0786-95.77194 73.0786h-33.0903v78.477H669.004zm79.37675 107.36855c34.18998 0 50.58518-12.79626 50.58518-38.18882 0-25.69247-18.0947-34.28995-52.18471-34.28995h-28.09177v72.47877z"/>
</svg>
